X: 37126
T: Sinead Máire's
R: jig
M: 6/8
K: Amajor
EFd cAE|E~F2 A2c|d2a aga|fdc Bcd|
~e2f dAE|~F3 A2c|dAF G2B|1 BAG A2E:|2 BAG Ac/d/e||
f2c fga|~g3 e2c|dAE ~F2E|GBe bag|
~a3 fga|~g3 e2c|f2a abg|a3 bc'b|
~a3 fga|~g3 e2c|dAE ~F2E|GBe bag|
~a3 fga|~g3 e2c|dAF G2B|BAG A2E||

